X:1
T:G Major Jacob French, 1802
T:Charles Wesley, 1739 77. 77.
T:Ascension
T:Transcribed from Harmony of Harmony, 1802
%%score [ 1 2 3 4 ]
L:1/8
Q:1/4=100
M:2/2
K:G
V:1 treble nm="Tr." snm="Tr."
V:2 treble nm="C." snm="C."
V:3 treble-8 nm="T." snm="T."
V:4 bass nm="B." snm="B."
V:1
"^1. Hail   the  day   that   saw  him   rise,        Ravished     from  our   wish  –   ful    eyes,       Christ,  a  –  while    to      mor – tals   given," B3 c | %1
 d2 dc B2 A2 | A8 | G2 G2 A2 G2 | F6 A2 | B8 | B>A G2 c>B A2 | d>c B2 A4 | %8
"^1. Re   –  a – scends his na     –      tive heav'n. There the pompous triumph waits:    Lift your heads, eternal        gates!   Wide           un –" d2 cB c2 B2 | %9
 B4 A4 | A8 | B2 d2 d2 B2 | d2 B2 G4- | G4 c2 e2 | e2 c2 e2 c2 | A8 | (B2 d4) c2 | %17
"^1. –  fold         the       radiant      scene,   Take  the King of    glo  –  ry         in,        Take  the King of     glo         –       –          ry        in." (d4 g2) d2 | %18
 e4 d4 | d8 | G3 A B2 c2 | d4 ^c4 | d8 | d3 c B2 e2 | (d3 e dc) BA | B8 |] %26
V:2
"^2. Him though highest heaven re – ceives,     Still     he     loves  the    earth    he  leaves;     Though re – tur –  ning     to       his   throne," D3 D | %1
 G2 F2 G2 E2 | F8 | GF ED E2 E2 | D6 D2 | D8 | z8 | z8 | %8
"^2. Still   he      calls man–kind       his     own.     See, he lifts his  hands above!             See, he shows the prints of love!     Hark,            his" BA GB A2 F2 | %9
 (G3 F) E4 | F8 | G2 G2 G2 G2 | G2 GF E4- | E4 A2 A2 | A2 A2 A2 AG | F8 | (G2 B4) A2 | %17
"^2. gra      –      cious    lips   be  – stow,     Bles–sings  on  his  church  be  –  low!    Bles–sings  on  his    church ___________      be   –   low!" (G2 D2 E2) F2 | %18
 G4 G4 | F8 | z8 | z8 | z8 | B3 A G2 G2 | (F3 G FE) D2 | [DG]8 |] %26
V:3
"^3. Still   for    us     he      in –ter –  cedes,      Pre – va  –  lent   his     death    he  pleads;     Next    him – self    pre  –  pares   our  place," G3 A | %1
 B2 A2 B2 c2 | d8 | ed cB c2 B2 | A6 F2 | G8 | z8 | z8 | %8
"^3. Har – bin –ger   of    hu    –      man   race. Grant, though parted from our sight,     High above yon a –  zure   height,   Grant          our" gf eg f2 d2 | %9
 (e3 d) ^c4 | d8 | d2 B2 B2 G2 | B2 d2 c4- | c4 e2 c2 | c2 A2 c2 e2 | d8 | (G2 g2 f2) e2 | %17
"^3. hearts         may     thi – ther  rise,        Following thee be–yond   the     skies,     Following thee be – yond ______________    the     skies." (d2 B2 G2) AB | %18
 c4 B4 | A8 | z8 | z8 | z8 | g3 e d2 c2 | (B2 A2 A>G) F2 | G8 |] %26
V:4
"^4. Ev  – er     upward     let    us     move,      Waf – ted     on    the    wings    of      love,        Loo –  king   when  our     Lord  shall come," G,3 F, | %1
 G,2 D,2 G,2 A,2 | D,8 | C,2 C,2 C,2 C,2 | D,6 D,2 | G,,8 | G,>A, B,2 A,>B, C2 | B,>A, G,2 D,4 | %8
"^4. Longing,    gasping     af     –     ter     home. There we shall with thee remain,       Partners of thine endless     reign;   There          thy" G,2 G,2 A,2 B,2 | %9
 G,4 A,4 | E,8 | G,2 G,2 G,2 G,2 | G,,2 G,,2 C,4- | C,4 A,2 A,2 | A,2 A,2 A,,2 A,,2 | D,8 | %16
 (G,3 A, B,2) C2 | %17
"^4. face             un   –  clou–ded   see,       Find our heav'n of heav'ns in     thee,      Find our heav'n of  heav'ns ___________    in         thee." (B,2 G,2 E,2) D,2 | %18
 C,4 G,,4 | D,8 | G,3 F, E,2 C,2 | B,,4 A,,4 | D,8 | G,3 A, B,2 C2 | (D2 D,4) D,2 | G,,8 |] %26

